icons/lines/threedcube.svg

<svg xmlns="http://www.w3.org/2000/svg" width="24" height="24" viewBox="0 0 24 24" fill="none" stroke="currentColor" stroke-width="2" stroke-linecap="round" stroke-linejoin="round" >
  <path d="M12.92 2.26003L19.43 5.77003C20.19 6.18003 20.19 7.35003 19.43 7.76003L12.92 11.27C12.34 11.58 11.66 11.58 11.08 11.27L4.57 7.76003C3.81 7.35003 3.81 6.18003 4.57 5.77003L11.08 2.26003C11.66 1.95003 12.34 1.95003 12.92 2.26003Z"/>
  <path d="M3.61 10.13L9.66 13.16C10.41 13.54 10.89 14.31 10.89 15.15V20.87C10.89 21.7 10.02 22.23 9.28 21.86L3.23 18.83C2.48 18.45 2 17.68 2 16.84V11.12C2 10.29 2.87 9.75999 3.61 10.13Z"/>
  <path d="M20.3899 10.13L14.3399 13.16C13.5899 13.54 13.1099 14.31 13.1099 15.15V20.87C13.1099 21.7 13.9799 22.23 14.7199 21.86L20.7699 18.83C21.5199 18.45 21.9999 17.68 21.9999 16.84V11.12C21.9999 10.29 21.1299 9.75999 20.3899 10.13Z"/>
  </svg>

<svg xmlns="http://www.w3.org/2000/svg" width="24" height="24" viewBox="0 0 24 24" fill="none" stroke="currentColor" stroke-width="2" stroke-linecap="round" stroke-linejoin="round">
  <path d="M14.34 13.16a2.24 2.24 0 0 0-1.23 1.99v5.72a1.11 1.11 0 0 0 1.61.99l6.05-3.03A2.24 2.24 0 0 0 22 16.84v-5.72a1.11 1.11 0 0 0-1.61-.99z" />
  <path d="M19.43 5.77a1.113 1.113 0 0 1 0 1.99l-6.51 3.51a2 2 0 0 1-1.84 0L4.57 7.76a1.113 1.113 0 0 1 0-1.99l6.51-3.51a2 2 0 0 1 1.84 0z" />
  <path d="M9.66 13.16a2.24 2.24 0 0 1 1.23 1.99v5.72a1.11 1.11 0 0 1-1.61.99l-6.05-3.03A2.24 2.24 0 0 1 2 16.84v-5.72a1.11 1.11 0 0 1 1.61-.99z" />
</svg>
